X: 37078
T: Silver Spire, The
R: reel
M: 4/4
K: Dmajor
|:D2FE DFAc|d2de fdAF|G2BG FADF|FEED CEA,C|
D2FE DFAc|dcde fdAF|GABG FEDF|EDCE D4:|
|:A,B,CD EFGE|FDEF GABc|dBBA Bcde|fdgf eABc|
defd ceAc|dcdB AFDF|G2BG FEDF|EDCE D4:|

